main/svg/leaves6.svg

<svg xmlns="http://www.w3.org/2000/svg" width="32" height="32"><path d="M14 8A6 6 0 1 1 2 8a6 6 0 0 1 12 0Zm16 0a6 6 0 1 1-12 0 6 6 0 0 1 12 0ZM14 24a6 6 0 1 1-12 0 6 6 0 0 1 12 0Zm16 0a6 6 0 1 1-12 0 6 6 0 0 1 12 0Zm0 0" style="stroke:none;fill-rule:nonzero;fill:#000;fill-opacity:1"/><path d="M22 16a6 6 0 1 1-12 0 6 6 0 0 1 12 0Zm0 0" style="stroke:none;fill-rule:nonzero;fill:#000;fill-opacity:1"/></svg>

<svg xmlns="http://www.w3.org/2000/svg" width="32" height="32"><path d="M14 8a6 6 0 1 1-12 0A6 6 0 0 1 14 8Zm16 0A6 6 0 1 1 18 8 6 6 0 0 1 30 8ZM14 24a6 6 0 1 1-12-0A6 6 0 0 1 14 24Zm16 0A6 6 0 1 1 18 24 6 6 0 0 1 30 24Zm0 0" style="stroke:none;fill-rule:nonzero;fill:#000;fill-opacity:1"/><path d="M22 16A6 6 0 1 1 10 16 6 6 0 0 1 22 16Zm0 0" style="stroke:none;fill-rule:nonzero;fill:#000;fill-opacity:1"/></svg>
